!! 00000] TT[00
!! NN
!!!OTL: Kuma caier ku yinyin
!!!ARE: Asia, China,ÿSichuan, Shimian
!! Ethnic Group: Han
!! II, 241
!!!SCT: C0228
!!!YEM: Copyright 1995, estate of Helmut Schaffrath.
**kern
*ICvox
*Ivox
!! Mixed meters:  3/4; 4/4
*M3/4
*k[b-]
*F:
{8d
8d
8d
8f
4g
=1
4ee
2dd
=2
8dd
8cc
8a
8cc
4a}
=3
*M4/4
{8g
8a
4cc
4cc
8dd
8cc
=4
4a
2g
8g
8f
=5
*M3/4
8d
8f
2d}
=6
*M4/4
{8d
8f
2g
4a
=7
*M3/4
4ee
4.dd
8cc
=8
8a
8cc
2a}
=9
*M4/4
{8g
8a
4cc
4cc
8dd
8cc
=10
4a
2g
8g
8f
=11
8d
8f
2d}
==
!!!AGN: Xiaodiao. Jianu suku
!! Inhalt: Ein Maedchen heiratet ein noch viel juengeres Kind.
!!!ONB: ESAC (Essen Associative Code) Database: CHINA
!!!AMT: irregular
!!!AIN: vox
!!!EED: Helmut Schaffrath
!!!EEV: 1.0
*-
